X: 5471
T: Bunclody
R: waltz
M: 3/4
K: Gmajor
GA|Bg3 af|gd3 Bd|c2 A3F|G4|
|:f>g|a2 d2 g>f|e2 d3B|c2 d>B GB|A4:|
GA|Bg3 af|gd3 Bd|c2 A3F|G4|

